svg/fluentui-system-icons/ic_fluent_scan_dash_16_regular.svg

<svg width="16" height="16" viewBox="0 0 16 16" fill="none" xmlns="http://www.w3.org/2000/svg">
<path d="M4.5 2C3.11929 2 2 3.11929 2 4.5V5.5C2 5.77614 2.22386 6 2.5 6C2.77614 6 3 5.77614 3 5.5V4.5C3 3.67157 3.67157 3 4.5 3H5.5C5.77614 3 6 2.77614 6 2.5C6 2.22386 5.77614 2 5.5 2H4.5ZM10.5 2C10.2239 2 10 2.22386 10 2.5C10 2.77614 10.2239 3 10.5 3H11.5C12.3284 3 13 3.67157 13 4.5V5.5C13 5.77614 13.2239 6 13.5 6C13.7761 6 14 5.77614 14 5.5V4.5C14 3.11929 12.8807 2 11.5 2H10.5ZM3 10.5C3 10.2239 2.77614 10 2.5 10C2.22386 10 2 10.2239 2 10.5V11.5C2 12.8807 3.11929 14 4.5 14H5.5C5.77614 14 6 13.7761 6 13.5C6 13.2239 5.77614 13 5.5 13H4.5C3.67157 13 3 12.3284 3 11.5V10.5ZM14 10.5C14 10.2239 13.7761 10 13.5 10C13.2239 10 13 10.2239 13 10.5V11.5C13 12.3284 12.3284 13 11.5 13H10.5C10.2239 13 10 13.2239 10 13.5C10 13.7761 10.2239 14 10.5 14H11.5C12.8807 14 14 12.8807 14 11.5V10.5ZM5 7.5C4.72386 7.5 4.5 7.72386 4.5 8C4.5 8.27614 4.72386 8.5 5 8.5H11C11.2761 8.5 11.5 8.27614 11.5 8C11.5 7.72386 11.2761 7.5 11 7.5H5Z" fill="#212121"/>
</svg>

<svg xmlns="http://www.w3.org/2000/svg" width="16" height="16"><path d="M4.5 2A2.5 2.5 0 0 0 2 4.5v1a.5.5 0 0 0 1 0v-1A1.5 1.5 0 0 1 4.5 3h1a.5.5 0 0 0 0-1h-1Zm6 0a.5.5 0 0 0 0 1h1A1.5 1.5 0 0 1 13 4.5v1a.5.5 0 0 0 1 0v-1A2.5 2.5 0 0 0 11.5 2h-1ZM3 10.5a.5.5 0 0 0-1 0v1A2.5 2.5 0 0 0 4.5 14h1a.5.5 0 0 0 0-1h-1A1.5 1.5 0 0 1 3 11.5v-1Zm11 0a.5.5 0 0 0-1 0v1a1.5 1.5 0 0 1-1.5 1.5h-1a.5.5 0 0 0 0 1h1a2.5 2.5 0 0 0 2.5-2.5v-1Zm-9-3a.5.5 0 0 0 0 1h6a.5.5 0 0 0 0-1H5Z"/></svg>
